tools/download-figma-icons/icons/outlined-large/time.svg

<svg width="65" height="65" viewBox="0 0 65 65" fill="none" xmlns="http://www.w3.org/2000/svg">
<path fill-rule="evenodd" clip-rule="evenodd" d="M34.0167 1.52313C34.0167 2.36389 33.3354 3.04625 32.4936 3.04625C31.6518 3.04625 30.9704 2.36389 30.9704 1.52313C30.9704 0.682361 31.6518 0 32.4936 0C33.3354 0 34.0167 0.682361 34.0167 1.52313ZM24.8705 4.05172C25.6829 3.83341 26.1652 2.99873 25.9479 2.1864C25.7296 1.37305 24.8949 0.89174 24.0826 1.11005C23.2692 1.32634 22.7879 2.16203 23.0052 2.97436C23.2225 3.7867 24.0582 4.26902 24.8705 4.05172ZM18.325 4.91533C18.7454 5.64339 18.4966 6.57554 17.7676 6.99592C17.0395 7.41631 16.1074 7.16651 15.687 6.43846C15.2666 5.70939 15.5164 4.77825 16.2445 4.35685C16.9735 3.93647 17.9047 4.18626 18.325 4.91533ZM53.3216 9.51457C53.9167 8.91953 54.8813 8.91953 55.4763 9.51457C61.6176 15.6538 64.9999 23.8177 64.9999 32.5006C64.9999 50.4207 50.4206 65 32.5005 65C14.5794 65 0 50.4207 0 32.5006C0 31.6598 0.682361 30.9775 1.52313 30.9775C2.36491 30.9775 3.04625 31.6598 3.04625 32.5006C3.04625 48.7412 16.2589 61.9538 32.5005 61.9538C48.7411 61.9538 61.9537 48.7412 61.9537 32.5006C61.9537 24.6311 58.8881 17.2338 53.3226 11.6683C52.7276 11.0732 52.7276 10.1096 53.3216 9.51457ZM34.742 32.5003C34.742 31.2635 33.7357 30.2582 32.5 30.2582C31.2642 30.2582 30.2579 31.2635 30.2579 32.5003C30.2579 33.7371 31.2642 34.7423 32.5 34.7423C33.7357 34.7423 34.742 33.7371 34.742 32.5003ZM15.4206 34.0295H15.4196C14.5789 34.0295 13.8975 33.3481 13.8965 32.5074C13.8965 31.6656 14.5778 30.9832 15.4196 30.9832L27.4615 30.9792C28.1205 28.8072 30.1168 27.212 32.5 27.212C33.3915 27.212 34.2201 27.4547 34.9573 27.8466L45.3582 17.3238C45.9492 16.7247 46.9138 16.7207 47.5119 17.3117C48.11 17.9026 48.1161 18.8663 47.5241 19.4654L37.1242 29.9881C37.5344 30.7395 37.7883 31.5864 37.7883 32.5003C37.7883 35.4166 35.4162 37.7886 32.5 37.7886C30.1178 37.7886 28.1215 36.1954 27.4625 34.0254L15.4206 34.0295ZM2.18274 25.9596C2.99508 26.1779 3.83077 25.6956 4.04806 24.8822C4.26638 24.0709 3.78406 23.2352 2.97172 23.0179C2.15939 22.8006 1.3237 23.2819 1.10538 24.0942C0.888084 24.9076 1.37041 25.7423 2.18274 25.9596ZM6.98932 17.7785C6.56894 18.5076 5.63679 18.7564 4.90873 18.336C4.18068 17.9156 3.93089 16.9845 4.35127 16.2554C4.77165 15.5263 5.7038 15.2776 6.43186 15.698C7.15991 16.1183 7.40971 17.0495 6.98932 17.7785ZM11.6686 11.6773C12.2636 11.0833 12.2636 10.1186 11.6686 9.5236C11.0735 8.92857 10.1089 8.92857 9.51487 9.5236C8.91984 10.1186 8.91984 11.0833 9.51487 11.6773C10.1089 12.2723 11.0735 12.2723 11.6686 11.6773ZM40.1171 4.04878C40.9295 4.26607 41.7651 3.78375 41.9824 2.9704C42.1997 2.15908 41.7184 1.32339 40.9051 1.10609C40.0928 0.888795 39.2581 1.3701 39.0398 2.18244C38.8225 2.99579 39.3048 3.83046 40.1171 4.04878ZM49.3017 6.43145C48.8813 7.16052 47.9502 7.4093 47.2211 6.98892C46.493 6.56853 46.2432 5.6374 46.6636 4.90833C47.084 4.17926 48.0162 3.93048 48.7442 4.35086C49.4733 4.77125 49.7221 5.70238 49.3017 6.43145Z" fill="black"/>
</svg>

<svg width="65" height="65" viewBox="0 0 65 65" fill="none" xmlns="http://www.w3.org/2000/svg"><path fill-rule="evenodd" clip-rule="evenodd" d="M34.017 1.523a1.523 1.523 0 1 1-3.046 0 1.523 1.523 0 0 1 3.046 0ZM24.87 4.052a1.522 1.522 0 1 0-.788-2.942 1.524 1.524 0 0 0 .788 2.942Zm-6.545.863a1.523 1.523 0 1 1-2.637 1.524 1.523 1.523 0 0 1 2.637-1.524Zm34.997 4.6a1.524 1.524 0 0 1 2.154 0C61.618 15.654 65 23.818 65 32.5 65 50.42 50.42 65 32.5 65S0 50.42 0 32.5a1.524 1.524 0 0 1 3.046 0c0 16.241 13.213 29.454 29.455 29.454 16.24 0 29.453-13.213 29.453-29.453 0-7.87-3.066-15.267-8.631-20.833a1.523 1.523 0 0 1-.001-2.153ZM34.742 32.5a2.245 2.245 0 0 0-2.242-2.242 2.245 2.245 0 0 0-2.242 2.242 2.245 2.245 0 0 0 2.242 2.242 2.245 2.245 0 0 0 2.242-2.242Zm-19.321 1.53h-.001a1.524 1.524 0 0 1 0-3.047l12.042-.004c.659-2.172 2.655-3.767 5.038-3.767.892 0 1.72.243 2.457.635l10.401-10.523a1.522 1.522 0 1 1 2.166 2.141l-10.4 10.523c.41.752.664 1.598.664 2.512a5.294 5.294 0 0 1-5.288 5.29c-2.382 0-4.378-1.594-5.038-3.764l-12.041.005ZM2.183 25.96a1.522 1.522 0 1 0 .789-2.942 1.523 1.523 0 1 0-.789 2.942Zm4.806-8.181a1.523 1.523 0 1 1-2.638-1.523A1.523 1.523 0 0 1 6.99 17.78Zm4.68-6.102a1.522 1.522 0 1 0-2.153-2.153 1.522 1.522 0 0 0 2.153 2.153ZM40.117 4.05a1.523 1.523 0 1 0 .787-2.944 1.523 1.523 0 0 0-.787 2.944Zm9.185 2.382a1.523 1.523 0 1 1-2.638-1.521 1.523 1.523 0 0 1 2.638 1.521Z" fill="currentColor"/></svg>
